X: 42282
T: Weaver, The
R: jig
M: 6/8
K: Amixolydian
|:a|"A"AAA cBA|cde g3|"G"GGG B2G|d2G BAG|"A"AAA cBA|cde g2a|"E"ede "G"gdB|"A"AAA A2:|
|:e|"A"AAa acc|ecc a2c|"G"BBg gBB|dBB gBB|"A"AAa acc|ecc g2a|"E"dcd "G"gdB|"A"AAA A2:|

